X:1
T:Bye Bye Blackbird 
L:1/4
M:4/4
K:F
"F"AA "Dm7"AA|"Gm7"BA "Am7"A2|"Gm7"AG "C7b9"G2|"Fma7"GF F2|
"Am"F4|"Abdim"G4|"Gm7"F2 E2-|"C7"E4||
"Gm7"BB"/F#"BB|"D7/F"cB "/E"B2|"Gm"BAA2|"C7"AGG2|
"Gm7"G4|"C7"A4|"Fma7"G2F2-|"Gm7"F2-"C7"F2||
"F7"Fccc|"Bb7"cBAG|"Am7"G4|"D7"^F4|
"Gm7"DBBB|BAGF|"Db7"F4|"C7"E4|
"F"AA "Dm7"AA|"Gm7 (Bbma7)"BA "C7"A2|"Am7(Ao7)"AGG2|"D7b9"G^FF2|
"Gm7"G2B2-|"C7"B2 E2|"F"F4|"Gm7"z2 "C7"z2|]
